package/contents/images/driveway-dark.svg

<?xml version="1.0" encoding="UTF-8" standalone="no"?>
<!-- Created with Inkscape (http://www.inkscape.org/) -->

<svg:svg
   xmlns:dc="http://purl.org/dc/elements/1.1/"
   xmlns:cc="http://creativecommons.org/ns#"
   xmlns:rdf="http://www.w3.org/1999/02/22-rdf-syntax-ns#"
   xmlns:svg="http://www.w3.org/2000/svg"
   xmlns:sodipodi="http://sodipodi.sourceforge.net/DTD/sodipodi-0.dtd"
   xmlns:inkscape="http://www.inkscape.org/namespaces/inkscape"
   width="22"
   height="22"
   viewBox="0 0 21.999999 21.999999"
   id="svg7888"
   version="1.1"
   inkscape:version="0.91 r13725"
   sodipodi:docname="philips-hue-room-driveway.svg"
   inkscape:export-filename="/home/jamboarder/Projects/KDE VDG/Phillips Hue Plasmoid/philips-hue-bulb-fill.png"
   inkscape:export-xdpi="523.63635"
   inkscape:export-ydpi="523.63635">
  <svg:defs
     id="defs7890">
    <svg:linearGradient
       id="linearGradient4178">
      <svg:stop
         id="stop4180"
         offset="0"
         style="stop-color:#3c3c3c;stop-opacity:0.24313726" />
      <svg:stop
         id="stop4182"
         offset="1"
         style="stop-color:#232629;stop-opacity:0.01176471" />
    </svg:linearGradient>
    <svg:linearGradient
       id="linearGradient4172">
      <svg:stop
         id="stop4174"
         offset="0"
         style="stop-color:#252525;stop-opacity:0.24313726" />
      <svg:stop
         id="stop4176"
         offset="1"
         style="stop-color:#232629;stop-opacity:0.01176471" />
    </svg:linearGradient>
    <svg:linearGradient
       id="linearGradient4165">
      <svg:stop
         id="stop4167"
         offset="0"
         style="stop-color:#1d2023;stop-opacity:0.24313726" />
      <svg:stop
         id="stop4169"
         offset="1"
         style="stop-color:#232629;stop-opacity:0.00392157" />
    </svg:linearGradient>
    <svg:linearGradient
       id="linearGradient7348">
      <svg:stop
         style="stop-color:#232629;stop-opacity:0.20588236"
         offset="0"
         id="stop7350" />
      <svg:stop
         style="stop-color:#232629;stop-opacity:0.01176471"
         offset="1"
         id="stop7352" />
    </svg:linearGradient>
    <style
       type="text/css"
       id="current-color-scheme">
        .ColorScheme-Text {
        color:#4d4d4d;
      }
    </style>
  </svg:defs>
  <sodipodi:namedview
     id="base"
     pagecolor="#ffffff"
     bordercolor="#666666"
     borderopacity="1.0"
     inkscape:pageopacity="0"
     inkscape:pageshadow="2"
     inkscape:zoom="11.313709"
     inkscape:cx="6.2663232"
     inkscape:cy="4.6867711"
     inkscape:document-units="px"
     inkscape:current-layer="layer1"
     showgrid="true"
     units="px"
     inkscape:snap-bbox="true"
     inkscape:bbox-nodes="true"
     inkscape:snap-intersection-paths="true"
     inkscape:snap-midpoints="true"
     inkscape:object-paths="true"
     inkscape:object-nodes="true"
     inkscape:snap-nodes="true"
     showguides="true"
     inkscape:guide-bbox="true"
     inkscape:window-width="1365"
     inkscape:window-height="1011"
     inkscape:window-x="555"
     inkscape:window-y="0"
     inkscape:window-maximized="0"
     inkscape:snap-global="true"
     inkscape:snap-smooth-nodes="true"
     inkscape:bbox-paths="true"
     inkscape:snap-bbox-edge-midpoints="true"
     inkscape:snap-bbox-midpoints="true">
    <inkscape:grid
       type="xygrid"
       id="grid7896"
       empspacing="4"
       originx="0"
       originy="0"
       color="#0000ff"
       opacity="0.12156863" />
    <sodipodi:guide
       position="-4.9999998,19.999999"
       orientation="0,1"
       id="guide8012" />
    <sodipodi:guide
       position="18.999999,5.9999997"
       orientation="1,0"
       id="guide8018" />
    <sodipodi:guide
       position="2.9999999,2.9999999"
       orientation="0,1"
       id="guide8022" />
    <sodipodi:guide
       position="2.9999999,5.9999997"
       orientation="1,0"
       id="guide8024" />
    <sodipodi:guide
       position="10.999999,0"
       orientation="1,0"
       id="guide4302" />
  </sodipodi:namedview>
  <svg:metadata
     id="metadata7893">
    <rdf:RDF>
      <cc:Work
         rdf:about="">
        <dc:format>image/svg+xml</dc:format>
        <dc:type
           rdf:resource="http://purl.org/dc/dcmitype/StillImage" />
        <dc:title />
      </cc:Work>
    </rdf:RDF>
  </svg:metadata>
  <svg:g
     inkscape:label="Layer 1"
     inkscape:groupmode="layer"
     id="layer1"
     transform="translate(0,-1030.3622)">
    <svg:path
       style="color:#000000;clip-rule:nonzero;display:inline;overflow:visible;visibility:visible;opacity:1;isolation:auto;mix-blend-mode:normal;color-interpolation:sRGB;color-interpolation-filters:linearRGB;solid-color:#000000;solid-opacity:1;fill:#4d4d4d;fill-opacity:1;fill-rule:nonzero;stroke:none;stroke-width:1;stroke-linecap:butt;stroke-linejoin:miter;stroke-miterlimit:4;stroke-dasharray:none;stroke-dashoffset:0;stroke-opacity:1;color-rendering:auto;image-rendering:auto;shape-rendering:auto;text-rendering:auto;enable-background:accumulate"
       d="M 10 6 L 3 19 L 19 19 L 12 6 L 10 6 z M 10.5 7 L 11.5 7 L 11.5 8 L 10.5 8 L 10.5 7 z M 10.5 9 L 11.5 9 L 11.5 11 L 10.5 11 L 10.5 9 z M 10.5 13 L 11.5 13 L 11.5 17 L 10.5 17 L 10.5 13 z "
       transform="translate(0,1030.3622)"
       id="rect4213" />
  </svg:g>
</svg:svg>

<?xml version="1.0" encoding="UTF-8" standalone="no"?>
<svg xmlns="http://www.w3.org/2000/svg" version="1.1" xmlns:cc="http://creativecommons.org/ns#" xmlns:dc="http://purl.org/dc/elements/1.1/" height="22" viewBox="0 0 21.999999 21.999999" width="22" xmlns:rdf="http://www.w3.org/1999/02/22-rdf-syntax-ns#">
<defs>
<style id="current-color-scheme" type="text/css">.ColorScheme-Text {
        color:#4d4d4d;
      }</style>
</defs>
<g transform="translate(0 -1.03e3)">
<path style="text-rendering:auto;color-rendering:auto;color:#000000;isolation:auto;mix-blend-mode:normal;shape-rendering:auto;solid-color:#000000;image-rendering:auto" d="m10 6l-7 13h16l-7-13h-2zm0.5 1h1v1h-1v-1zm0 2h1v2h-1v-2zm0 4h1v4h-1v-4z" transform="translate(0 1.03e3)" fill="#4d4d4d"/>
</g>
</svg>
